app/dist/common/images/shimizu.svg

<svg height="18" width="18" xmlns="http://www.w3.org/2000/svg"><path d="m0 0h18v18h-18z" fill="#035fac"/><path d="m6.92 10.6c.63.83 1.64 0 2.77-.88 1.08-.88 1.9-1.7 1.2-2.39-.69-.7-1.89.38-2.52.88-1.01.82-2.02 1.58-1.45 2.4zm-2.25-1.7c0 1.2 1.23 3.1 4.33 3.1s4.33-1.52 4.33-3.1c0-1.56-2.18-2.9-4.33-2.9-2.84 0-4.33 1.7-4.33 2.9zm10.33 0c0 2.71-3.35 4.1-6.06 4.1-2.72 0-5.94-1.26-5.94-4.1 0-1.81 2.72-3.9 5.94-3.9 3.53 0 6.06 1.7 6.06 3.9z" fill="#fff"/></svg>

<!-- by TradingView --><svg xmlns="http://www.w3.org/2000/svg" width="18" height="18"><path fill="#035FAC" d="M0 0h18v18H0z"/><path d="M6.92 10.6c.63.83 1.64 0 2.77-.88 1.08-.88 1.9-1.7 1.2-2.39-.69-.7-1.89.38-2.52.88-1.01.82-2.02 1.58-1.45 2.4zM4.67 8.9C4.67 10.1 5.9 12 9 12s4.33-1.52 4.33-3.1C13.33 7.34 11.15 6 9 6 6.16 6 4.67 7.7 4.67 8.9zM15 8.9c0 2.71-3.35 4.1-6.06 4.1C6.22 13 3 11.74 3 8.9 3 7.09 5.72 5 8.94 5 12.47 5 15 6.7 15 8.9z" fill="#fff"/></svg>
